src/img/badge-google-play.svg

<svg viewBox="0 0 135 40" xmlns="http://www.w3.org/2000/svg" xmlns:xlink="http://www.w3.org/1999/xlink"><linearGradient id="a" gradientTransform="matrix(1 0 0 -1 0 182)" gradientUnits="userSpaceOnUse" x1="21.8" x2="5.02" y1="173.29" y2="156.51"><stop offset="0" stop-color="#00a0ff"/><stop offset=".01" stop-color="#00a1ff"/><stop offset=".26" stop-color="#00beff"/><stop offset=".51" stop-color="#00d2ff"/><stop offset=".76" stop-color="#00dfff"/><stop offset="1" stop-color="#00e3ff"/></linearGradient><linearGradient id="b" gradientTransform="matrix(1 0 0 -1 0 182)" gradientUnits="userSpaceOnUse" x1="33.83" x2="9.64" y1="162" y2="162"><stop offset="0" stop-color="#ffe000"/><stop offset=".41" stop-color="#ffbd00"/><stop offset=".78" stop-color="#ffa500"/><stop offset="1" stop-color="#ff9c00"/></linearGradient><linearGradient id="c" gradientTransform="matrix(1 0 0 -1 0 182)" gradientUnits="userSpaceOnUse" x1="24.83" x2="2.07" y1="159.7" y2="136.95"><stop offset="0" stop-color="#ff3a44"/><stop offset="1" stop-color="#c31162"/></linearGradient><linearGradient id="d" gradientTransform="matrix(1 0 0 -1 0 182)" gradientUnits="userSpaceOnUse" x1="7.3" x2="17.46" y1="181.82" y2="171.66"><stop offset="0" stop-color="#32a071"/><stop offset=".07" stop-color="#2da771"/><stop offset=".48" stop-color="#15cf74"/><stop offset=".8" stop-color="#06e775"/><stop offset="1" stop-color="#00f076"/></linearGradient><path d="m-10-10h155v60h-155z" fill="none"/><rect height="40" rx="5" width="135"/><path d="m130 .8a4.2 4.2 0 0 1 4.2 4.2v30a4.2 4.2 0 0 1 -4.2 4.2h-125a4.2 4.2 0 0 1 -4.2-4.2v-30a4.2 4.2 0 0 1 4.2-4.2zm0-.8h-125a5 5 0 0 0 -5 5v30a5 5 0 0 0 5 5h125a5 5 0 0 0 5-5v-30a5 5 0 0 0 -5-5z" fill="#a6a6a6"/><g fill="#fff"><path d="m47.42 10.24a2.72 2.72 0 0 1 -.75 2 2.9 2.9 0 0 1 -2.2.88 3 3 0 0 1 -2.21-.9 3 3 0 0 1 -.91-2.22 3 3 0 0 1 .91-2.23 3.16 3.16 0 0 1 3.44-.65 2.54 2.54 0 0 1 .94.67l-.53.53a2 2 0 0 0 -1.64-.72 2.32 2.32 0 0 0 -2.33 2.4 2.36 2.36 0 0 0 4 1.73 1.93 1.93 0 0 0 .51-1.22h-2.18v-.72h2.91a3.75 3.75 0 0 1 .04.45z" stroke="#fff" stroke-miterlimit="10" stroke-width=".2"/><path d="m52 7.74h-2.7v1.9h2.46v.72h-2.46v1.9h2.7v.74h-3.48v-6h3.48z" stroke="#fff" stroke-miterlimit="10" stroke-width=".2"/><path d="m55.28 13h-.77v-5.26h-1.68v-.74h4.17v.74h-1.72z" stroke="#fff" stroke-miterlimit="10" stroke-width=".2"/><path d="m59.94 13v-6h.77v6z" stroke="#fff" stroke-miterlimit="10" stroke-width=".2"/><path d="m64.13 13h-.77v-5.26h-1.68v-.74h4.12v.74h-1.67z" stroke="#fff" stroke-miterlimit="10" stroke-width=".2"/><path d="m73.61 12.22a3.11 3.11 0 0 1 -4.4 0 3 3 0 0 1 -.88-2.22 3 3 0 0 1 .88-2.22 2.93 2.93 0 0 1 2.2-.91 3 3 0 0 1 2.2.91 3.07 3.07 0 0 1 .88 2.22 3 3 0 0 1 -.88 2.22zm-3.83-.5a2.29 2.29 0 0 0 3.26 0 2.36 2.36 0 0 0 .67-1.72 2.36 2.36 0 0 0 -.71-1.72 2.29 2.29 0 0 0 -3.26 0 2.36 2.36 0 0 0 -.63 1.72 2.36 2.36 0 0 0 .67 1.72z" stroke="#fff" stroke-miterlimit="10" stroke-width=".2"/><path d="m75.58 13v-6h.93l2.92 4.67v-1.16-3.51h.77v6h-.8l-3.05-4.89v1.15 3.74z" stroke="#fff" stroke-miterlimit="10" stroke-width=".2"/><path d="m68.14 21.75a4.26 4.26 0 1 0 4.27 4.25 4.19 4.19 0 0 0 -4.27-4.25zm0 6.83a2.58 2.58 0 1 1 2.4-2.58 2.46 2.46 0 0 1 -2.4 2.58zm-9.32-6.83a4.26 4.26 0 1 0 4.27 4.25 4.19 4.19 0 0 0 -4.27-4.25zm0 6.83a2.58 2.58 0 1 1 2.4-2.58 2.46 2.46 0 0 1 -2.4 2.58zm-11.08-5.52v1.8h4.32a3.77 3.77 0 0 1 -1 2.27 4.42 4.42 0 0 1 -3.34 1.32 4.8 4.8 0 0 1 0-9.6 4.64 4.64 0 0 1 3.28 1.29l1.27-1.27a6.3 6.3 0 0 0 -4.53-1.82 6.61 6.61 0 1 0 0 13.21 6.07 6.07 0 0 0 4.61-1.85 6 6 0 0 0 1.56-4.23 6.27 6.27 0 0 0 -.09-1.12zm45.31 1.4a4 4 0 0 0 -3.64-2.71 4 4 0 0 0 -4 4.25 4.23 4.23 0 0 0 7.76 2.37l-1.45-1a2.41 2.41 0 0 1 -2.09 1.17 2.15 2.15 0 0 1 -2.06-1.29l5.69-2.35zm-5.8 1.42a2.33 2.33 0 0 1 2.23-2.48 1.64 1.64 0 0 1 1.57.9zm-4.62 4.12h1.87v-12.5h-1.87zm-3.06-7.3h-.07a2.94 2.94 0 0 0 -2.24-.95 4.26 4.26 0 0 0 0 8.51 2.88 2.88 0 0 0 2.24-1h.07v.61c0 1.63-.87 2.5-2.27 2.5a2.36 2.36 0 0 1 -2.15-1.51l-1.62.67a4 4 0 0 0 3.77 2.52c2.19 0 4-1.29 4-4.43v-7.62h-1.73zm-2.15 5.88a2.58 2.58 0 0 1 0-5.15 2.39 2.39 0 0 1 2.28 2.57 2.38 2.38 0 0 1 -2.28 2.58zm24.39-11.08h-4.48v12.5h1.87v-4.74h2.61a3.89 3.89 0 1 0 0-7.76zm0 6h-2.61v-4.26h2.65a2.14 2.14 0 1 1 0 4.28zm11.54-1.79a3.49 3.49 0 0 0 -3.33 1.91l1.65.69a1.78 1.78 0 0 1 1.71-.91 1.8 1.8 0 0 1 2 1.61v.12a4.18 4.18 0 0 0 -1.95-.48c-1.78 0-3.6 1-3.6 2.82a2.89 2.89 0 0 0 3.11 2.75 2.65 2.65 0 0 0 2.38-1.22h.06v1h1.8v-4.81c0-2.19-1.66-3.46-3.79-3.46zm-.23 6.85c-.61 0-1.46-.31-1.46-1.06 0-1 1.06-1.34 2-1.34a3.32 3.32 0 0 1 1.7.42 2.26 2.26 0 0 1 -2.2 2zm10.62-6.56-2.14 5.42h-.06l-2.22-5.42h-2l3.33 7.58-1.9 4.21h2l5.07-11.79zm-16.8 8h1.86v-12.5h-1.86z"/></g><path d="m10.44 7.54a2 2 0 0 0 -.44 1.4v22.12a1.94 1.94 0 0 0 .47 1.4l.07.08 12.36-12.39v-.3l-12.39-12.38z" fill="url(#a)"/><path d="m27 24.28-4.1-4.13v-.3l4.1-4.13.09.06 4.91 2.78c1.4.79 1.4 2.09 0 2.89l-4.89 2.78z" fill="url(#b)"/><path d="m27.12 24.23-4.22-4.23-12.46 12.46a1.62 1.62 0 0 0 2.07.07z" fill="url(#c)"/><path d="m27.12 15.78-14.61-8.3a1.61 1.61 0 0 0 -2.07.06l12.46 12.46z" fill="url(#d)"/><path d="m27 24.13-14.49 8.25a1.66 1.66 0 0 1 -2 0l-.07.07.07.08a1.66 1.66 0 0 0 2 0l14.61-8.3z" opacity=".2"/><path d="m10.44 32.32a2 2 0 0 1 -.44-1.41v.15a1.94 1.94 0 0 0 .47 1.4l.07-.07z" opacity=".12"/><path d="m32 21.3-5 2.83.09.1 4.91-2.79a1.75 1.75 0 0 0 1.06-1.44 1.86 1.86 0 0 1 -1.06 1.3z" opacity=".12"/><path d="m12.51 7.62 19.49 11.08a1.86 1.86 0 0 1 1.06 1.3 1.75 1.75 0 0 0 -1.06-1.44l-19.49-11.08c-1.39-.8-2.51-.14-2.51 1.46v.15c0-1.6 1.12-2.26 2.51-1.47z" fill="#fff" opacity=".25"/></svg>

<svg id="artwork" xmlns="http://www.w3.org/2000/svg" xmlns:xlink="http://www.w3.org/1999/xlink" viewBox="0 0 135 40"><defs><style>.cls-1,.cls-11,.cls-3,.cls-4{fill:#fff;}.cls-1{fill-opacity:0;}.cls-2{fill:#a6a6a6;}.cls-3{stroke:#fff;stroke-miterlimit:10;stroke-width:0.2px;}.cls-5{fill:url(#linear-gradient);}.cls-6{fill:url(#linear-gradient-2);}.cls-7{fill:url(#linear-gradient-3);}.cls-8{fill:url(#linear-gradient-4);}.cls-9{opacity:0.2;}.cls-10,.cls-11,.cls-9{isolation:isolate;}.cls-10{opacity:0.12;}.cls-11{opacity:0.25;}</style><linearGradient id="linear-gradient" x1="21.8" y1="173.29" x2="5.02" y2="156.51" gradientTransform="matrix(1, 0, 0, -1, 0, 182)" gradientUnits="userSpaceOnUse"><stop offset="0" stop-color="#00a0ff"/><stop offset="0.01" stop-color="#00a1ff"/><stop offset="0.26" stop-color="#00beff"/><stop offset="0.51" stop-color="#00d2ff"/><stop offset="0.76" stop-color="#00dfff"/><stop offset="1" stop-color="#00e3ff"/></linearGradient><linearGradient id="linear-gradient-2" x1="33.83" y1="162" x2="9.64" y2="162" gradientTransform="matrix(1, 0, 0, -1, 0, 182)" gradientUnits="userSpaceOnUse"><stop offset="0" stop-color="#ffe000"/><stop offset="0.41" stop-color="#ffbd00"/><stop offset="0.78" stop-color="orange"/><stop offset="1" stop-color="#ff9c00"/></linearGradient><linearGradient id="linear-gradient-3" x1="24.83" y1="159.7" x2="2.07" y2="136.95" gradientTransform="matrix(1, 0, 0, -1, 0, 182)" gradientUnits="userSpaceOnUse"><stop offset="0" stop-color="#ff3a44"/><stop offset="1" stop-color="#c31162"/></linearGradient><linearGradient id="linear-gradient-4" x1="7.3" y1="181.82" x2="17.46" y2="171.66" gradientTransform="matrix(1, 0, 0, -1, 0, 182)" gradientUnits="userSpaceOnUse"><stop offset="0" stop-color="#32a071"/><stop offset="0.07" stop-color="#2da771"/><stop offset="0.48" stop-color="#15cf74"/><stop offset="0.8" stop-color="#06e775"/><stop offset="1" stop-color="#00f076"/></linearGradient></defs><title>Artboard 1</title><rect class="cls-1" x="-10" y="-10" width="155" height="60"/><rect width="135" height="40" rx="5" ry="5"/><path class="cls-2" d="M130,.8A4.2,4.2,0,0,1,134.2,5V35a4.2,4.2,0,0,1-4.2,4.2H5A4.2,4.2,0,0,1,.8,35V5A4.2,4.2,0,0,1,5,.8H130m0-.8H5A5,5,0,0,0,0,5V35a5,5,0,0,0,5,5H130a5,5,0,0,0,5-5V5a5,5,0,0,0-5-5Z"/><path class="cls-3" d="M47.42,10.24a2.72,2.72,0,0,1-.75,2,2.9,2.9,0,0,1-2.2.88,3,3,0,0,1-2.21-.9A3,3,0,0,1,41.35,10a3,3,0,0,1,.91-2.23,3.16,3.16,0,0,1,3.44-.65,2.54,2.54,0,0,1,.94.67l-.53.53a2,2,0,0,0-1.64-.72A2.32,2.32,0,0,0,42.14,10a2.36,2.36,0,0,0,4,1.73,1.93,1.93,0,0,0,.51-1.22H44.47V9.79h2.91A3.75,3.75,0,0,1,47.42,10.24Z"/><path class="cls-3" d="M52,7.74H49.3v1.9h2.46v.72H49.3v1.9H52V13H48.52V7H52Z"/><path class="cls-3" d="M55.28,13h-.77V7.74H52.83V7H57v.74H55.28Z"/><path class="cls-3" d="M59.94,13V7h.77v6Z"/><path class="cls-3" d="M64.13,13h-.77V7.74H61.68V7H65.8v.74H64.13Z"/><path class="cls-3" d="M73.61,12.22a3.11,3.11,0,0,1-4.4,0A3,3,0,0,1,68.33,10a3,3,0,0,1,.88-2.22,2.93,2.93,0,0,1,2.2-.91,3,3,0,0,1,2.2.91A3.07,3.07,0,0,1,74.49,10,3,3,0,0,1,73.61,12.22Zm-3.83-.5a2.29,2.29,0,0,0,3.26,0A2.36,2.36,0,0,0,73.71,10,2.36,2.36,0,0,0,73,8.28a2.29,2.29,0,0,0-3.26,0A2.36,2.36,0,0,0,69.11,10,2.36,2.36,0,0,0,69.78,11.72Z"/><path class="cls-3" d="M75.58,13V7h.93l2.92,4.67h0l0-1.16V7h.77v6h-.8L76.35,8.11h0l0,1.15V13Z"/><path class="cls-4" d="M68.14,21.75A4.26,4.26,0,1,0,72.41,26,4.19,4.19,0,0,0,68.14,21.75Zm0,6.83A2.58,2.58,0,1,1,70.54,26,2.46,2.46,0,0,1,68.14,28.58Zm-9.32-6.83A4.26,4.26,0,1,0,63.09,26,4.19,4.19,0,0,0,58.82,21.75Zm0,6.83A2.58,2.58,0,1,1,61.22,26,2.46,2.46,0,0,1,58.82,28.58ZM47.74,23.06v1.8h4.32a3.77,3.77,0,0,1-1,2.27,4.42,4.42,0,0,1-3.34,1.32,4.8,4.8,0,0,1,0-9.6A4.64,4.64,0,0,1,51,20.14l1.27-1.27a6.3,6.3,0,0,0-4.53-1.82,6.61,6.61,0,1,0,0,13.21,6.07,6.07,0,0,0,4.61-1.85,6,6,0,0,0,1.56-4.23,6.27,6.27,0,0,0-.09-1.12Zm45.31,1.4a4,4,0,0,0-3.64-2.71,4,4,0,0,0-4,4.25,4.23,4.23,0,0,0,7.76,2.37l-1.45-1a2.41,2.41,0,0,1-2.09,1.17,2.15,2.15,0,0,1-2.06-1.29l5.69-2.35Zm-5.8,1.42a2.33,2.33,0,0,1,2.23-2.48,1.64,1.64,0,0,1,1.57.9ZM82.63,30H84.5V17.5H82.63Zm-3.06-7.3H79.5a2.94,2.94,0,0,0-2.24-.95,4.26,4.26,0,0,0,0,8.51,2.88,2.88,0,0,0,2.24-1h.07v.61c0,1.63-.87,2.5-2.27,2.5a2.36,2.36,0,0,1-2.15-1.51l-1.62.67a4,4,0,0,0,3.77,2.52c2.19,0,4-1.29,4-4.43V22H79.57Zm-2.15,5.88a2.58,2.58,0,0,1,0-5.15A2.39,2.39,0,0,1,79.7,26,2.38,2.38,0,0,1,77.42,28.58ZM101.81,17.5H97.33V30H99.2V25.26h2.61a3.89,3.89,0,1,0,0-7.76Zm0,6H99.2V19.24h2.65a2.14,2.14,0,1,1,0,4.28Zm11.54-1.79a3.49,3.49,0,0,0-3.33,1.91l1.65.69a1.78,1.78,0,0,1,1.71-.91,1.8,1.8,0,0,1,2,1.61v.12a4.18,4.18,0,0,0-1.95-.48c-1.78,0-3.6,1-3.6,2.82a2.89,2.89,0,0,0,3.11,2.75A2.65,2.65,0,0,0,115.32,29h.06v1h1.8V25.19C117.18,23,115.52,21.73,113.39,21.73Zm-.23,6.85c-.61,0-1.46-.31-1.46-1.06,0-1,1.06-1.34,2-1.34a3.32,3.32,0,0,1,1.7.42A2.26,2.26,0,0,1,113.16,28.58ZM123.74,22l-2.14,5.42h-.06L119.32,22h-2l3.33,7.58-1.9,4.21h2L125.82,22Zm-16.8,8h1.86V17.5h-1.86Z"/><path class="cls-5" d="M10.44,7.54A2,2,0,0,0,10,8.94V31.06a1.94,1.94,0,0,0,.47,1.4l.07.08L22.9,20.15v-.3L10.51,7.47Z"/><path class="cls-6" d="M27,24.28,22.9,20.15v-.3L27,15.72l.09.06L32,18.56c1.4.79,1.4,2.09,0,2.89l-4.89,2.78Z"/><path class="cls-7" d="M27.12,24.23,22.9,20,10.44,32.46a1.62,1.62,0,0,0,2.07.07l14.61-8.3"/><path class="cls-8" d="M27.12,15.78,12.51,7.48a1.61,1.61,0,0,0-2.07.06L22.9,20Z"/><path class="cls-9" d="M27,24.13,12.51,32.38a1.66,1.66,0,0,1-2,0h0l-.07.07h0l.07.08h0a1.66,1.66,0,0,0,2,0l14.61-8.3Z"/><path class="cls-10" d="M10.44,32.32A2,2,0,0,1,10,30.91v.15a1.94,1.94,0,0,0,.47,1.4l.07-.07Z"/><path class="cls-10" d="M32,21.3l-5,2.83.09.1L32,21.44A1.75,1.75,0,0,0,33.06,20h0A1.86,1.86,0,0,1,32,21.3Z"/><path class="cls-11" d="M12.51,7.62,32,18.7A1.86,1.86,0,0,1,33.06,20h0A1.75,1.75,0,0,0,32,18.56L12.51,7.48C11.12,6.68,10,7.34,10,8.94v.15C10,7.49,11.12,6.83,12.51,7.62Z"/></svg>
